X: 1
T: Misconception, The
M: 6/8
L: 1/8
R: jig
K: Bdor
~B3 BAF|~d3 ede|faf fed|ede efd|!
~B3 BAF|~d3 ede|fed edf|~B3 BAF|!
BdB BAF|~d3 ede|faf fed|~e3 ~a3|!
B=cB BAF|~d3 ede|fed edf|~B3 B2d||!
K:Amix
cAA BGG|B/c/d e ~g3|aba age|ede ged|!
cAA BGG|B/c/d e ~g3|age dBe|1~A3 A2d:|2~A3 A c/d/e||!
~a3 age|ede ~g3|aba ged|=cBc ded|!
cAA BGG|B/c/d e ~g3|age dBe|1~A3 A c/d/e:|2~A3 AGA||!
